static/assets/images/icons/exponential-simple.svg

<svg width="256" height="256" viewBox="0 0 256 256" fill="none" xmlns="http://www.w3.org/2000/svg">
<path d="M223.492 48.3408C225.598 46.2782 226.988 44.883 227.663 44.1552C227.888 43.9104 228 43.9552 228 44.2898V213.871C228 214.044 227.914 214.13 227.741 214.13H28.2594C28.0865 214.13 28 214.044 28 213.871V112.46C28 112.27 28.0951 112.175 28.2854 112.175C53.4319 112.418 77.6394 112.222 102.195 108.807C148.721 102.329 190.158 81.0133 223.492 48.3408ZM200.125 186.057L200.135 102.371C200.135 102.344 200.128 102.318 200.115 102.295C200.101 102.272 200.082 102.253 200.059 102.239C200.036 102.226 200.009 102.219 199.982 102.22C199.956 102.22 199.93 102.228 199.907 102.241C177.626 116.256 153.657 126.217 128 132.125C104.322 137.578 80.2698 139.632 56.3061 139.834C55.9395 139.838 55.7562 140.022 55.7562 140.388V186.062C55.7562 186.131 55.7835 186.196 55.8322 186.245C55.8808 186.293 55.9468 186.321 56.0156 186.321H199.86C200.036 186.321 200.125 186.233 200.125 186.057Z" fill="black"/>
</svg>

<svg xmlns="http://www.w3.org/2000/svg" viewBox="0 0 256 256"><path d="M223.492 48.34q3.159-3.093 4.171-4.185.337-.367.337.135v169.58q0 .26-.259.259H28.259q-.259 0-.259-.259V112.46q0-.285.285-.285c25.147.243 49.354.047 73.91-3.368 46.526-6.478 87.963-27.794 121.297-60.466m-23.367 137.717.01-83.686a.15.15 0 0 0-.02-.076.15.15 0 0 0-.133-.075.15.15 0 0 0-.075.021Q166.485 123.263 128 132.125c-23.678 5.453-47.73 7.507-71.694 7.709q-.55.005-.55.554v45.674a.26.26 0 0 0 .26.259H199.86q.264 0 .265-.264"/></svg>
